X: 30863
T: COTILLION No. 5. ST. LOUIS SETT tune 3
%R: jig
B: Elias Howe "The Musician's Companion" Part 3 1844 p.86 #3 (and p.87 #1)
S: http://imslp.org/wiki/The_Musician's_Companion_(Howe,_Elias)
Z: 2015 John Chambers <jc:trillian.mit.edu>
M: 6/8
L: 1/8
K: C
% - - - - - - - - - - - - - - - - - - - - - - - - - - - - -
E/F/ |\
G3 GEc | G3 GEe | d3 BAG | c2e g2E/F/ |\
G3 GEc | G3 GEe | ded BAG | c3- c2 H|]
G |\
fGf fGf | eGe eGe | ded dcB | AGG GGG |\
fGf fGf | eGe eGe | gfe dcB | g3 "^D.C."g2 |]
d |\
efe dcB | Ace E2e | efe dcB | (A4 ^c) |\
ded cBA | GBd G2G | ded cBA | G3- "^D.C."G2 |]
% - - - - - - - - - - Dance description - - - - - - - - - -
%%begintext align
%% Ladies all forward and back,
%% gentlemen the same,
%% all chassa across partners,
%% all balance partners and turn,
%% grand chain,
%% promenade all.
%%endtext
% - - - - - - - - - - - - - - - - - - - - - - - - - - - - -
%%sep 1 1 300
